X: 14621
T: Gan Ainm
R: reel
M: 4/4
K: Adorian
B|AE~E2 ABcd|ed~d2 edBA|BE~E2 GEDE|GABd gedB|
e2 dg eA~A2|BedB AGED|gedg edBA|BedB A3:|
|:B|AE~E2 cE~E2|ACEA cEBE|GD~D2 B,D~D2|GDEG BAAG|
EAAG A2Bd|edBA GABd|gdeg dBAG|gedB A3:|
|:^g|ae~e2 ceBe|Aaab agef|gd~d2 gdeg|dega gedB|
~A3B cBcd|edBA GABd|gdeg dBAG|gedB A3:|

